img/bulb.svg

<svg xmlns="http://www.w3.org/2000/svg" preserveAspectRatio="xMidYMid" width="27.5" height="40" xmlns:v="https://vecta.io/nano"><path d="M21.21 28.847C18.706 35.832 19.062 40 13.75 40c-5.234 0-4.957-4.186-7.46-11.182C4.61 24.128 0 18.788 0 13.748 0 6.155 6.156-.002 13.75-.002S27.5 6.155 27.5 13.748c0 5-4.604 10.398-6.29 15.1zM13.75 37.5c1.476 0 2.035-.158 2.8-2.225l-5.297.663c.647 1.416 1.23 1.562 2.496 1.562zm-3.705-5.123c.288.977.526 1.727.747 2.368l6.2-.776.45-1.492.33-1.105-7.736.966c.003.013.007.028.01.04zm-.375-1.242l8.5-1.062c.133-.424.287-.874.44-1.323H8.9a71.75 71.75 0 0 1 .769 2.385zM13.75 2.5C7.546 2.5 2.5 7.545 2.5 13.748c0 2.542 1.686 5.56 3.317 8.48.737 1.32 1.484 2.67 2.107 4.02H19.6c.62-1.343 1.36-2.69 2.09-4.006C23.313 19.307 25 16.27 25 13.748 25 7.545 19.954 2.5 13.75 2.5zm0 5a6.26 6.26 0 0 0-6.25 6.249c0 .347-.28.626-.625.626s-.625-.28-.625-.626a7.51 7.51 0 0 1 7.5-7.499c.345 0 .625.28.625.625s-.28.625-.625.625z" fill="#0d0d0d" fill-rule="evenodd"/></svg>

<svg xmlns="http://www.w3.org/2000/svg" xmlns:xlink="http://www.w3.org/1999/xlink" preserveAspectRatio="xMidYMid" width="27.5" height="40" viewBox="0 0 27.5 40">
  <defs>
    <style>
      .cls-1 {
        fill: #0d0d0d;
        fill-rule: evenodd;
      }
    </style>
  </defs>
  <path d="M21.211,28.847 C18.706,35.832 19.062,39.999 13.750,39.999 C8.516,39.999 8.793,35.813 6.289,28.817 C4.611,24.128 -0.000,18.788 -0.000,13.748 C-0.000,6.155 6.156,-0.002 13.750,-0.002 C21.344,-0.002 27.500,6.155 27.500,13.748 C27.500,18.749 22.896,24.146 21.211,28.847 ZM13.750,37.499 C15.226,37.499 15.785,37.341 16.551,35.274 L11.254,35.937 C11.901,37.353 12.484,37.499 13.750,37.499 ZM10.045,32.376 C10.333,33.353 10.571,34.103 10.792,34.744 L16.991,33.968 C17.129,33.526 17.277,33.038 17.440,32.476 C17.541,32.129 17.660,31.741 17.770,31.371 L10.034,32.337 C10.037,32.350 10.041,32.365 10.045,32.376 ZM9.670,31.134 L18.169,30.072 C18.302,29.648 18.456,29.198 18.608,28.749 L8.901,28.749 C9.187,29.589 9.443,30.382 9.670,31.134 ZM13.750,2.499 C7.546,2.499 2.500,7.545 2.500,13.748 C2.500,16.290 4.186,19.309 5.817,22.228 C6.554,23.549 7.301,24.899 7.924,26.249 L19.590,26.249 C20.209,24.906 20.950,23.560 21.681,22.243 C23.313,19.307 25.000,16.271 25.000,13.748 C25.000,7.545 19.954,2.499 13.750,2.499 ZM13.750,7.499 C10.304,7.499 7.500,10.303 7.500,13.748 C7.500,14.095 7.220,14.374 6.875,14.374 C6.529,14.374 6.250,14.095 6.250,13.748 C6.250,9.613 9.614,6.249 13.750,6.249 C14.095,6.249 14.375,6.528 14.375,6.874 C14.375,7.220 14.095,7.499 13.750,7.499 Z" class="cls-1"/>
</svg>
